src/icons/icon.svg

<svg height="493" viewBox="0 0 485 493" width="485" xmlns="http://www.w3.org/2000/svg" xmlns:xlink="http://www.w3.org/1999/xlink"><filter id="a" height="111.9%" width="112.1%" x="-5.6%" y="-5.1%"><feOffset dx="2" dy="4" in="SourceAlpha" result="shadowOffsetOuter1"/><feGaussianBlur in="shadowOffsetOuter1" result="shadowBlurOuter1" stdDeviation="5"/><feColorMatrix in="shadowBlurOuter1" result="shadowMatrixOuter1" type="matrix" values="0 0 0 0 0   0 0 0 0 0   0 0 0 0 0  0 0 0 0.5 0"/><feMerge><feMergeNode in="shadowMatrixOuter1"/><feMergeNode in="SourceGraphic"/></feMerge></filter><g fill="none" fill-rule="evenodd" filter="url(#a)" transform="translate(18 16)"><ellipse cx="222.653409" cy="226.147611" fill="#a6d6d8" fill-rule="evenodd" rx="222.1875" ry="226.147611"/><ellipse cx="222.653409" cy="226.147611" rx="227.1875" ry="231.147611" stroke="#e43894" stroke-width="10"/><ellipse cx="222.653409" cy="226.147611" rx="219.6875" ry="223.647611" stroke="#2b2b2b" stroke-width="5"/><g transform="translate(58 37)"><path d="m100.473947.35056585c50.761766-.2365156 101.547386-.78050149 152.309152.28381872-.047709 7.37928677 0 14.78222513.119271 22.16151183 8.301266.0946063 16.626386.1419094 24.927653.1892125.095417 7.8286664.143125 15.6573328.214688 23.4859992 8.396683.0709547 16.769512.1419094 25.166195.2128641-.310105 15.5863781-.214688 31.1727562.047708 46.7827859 8.325121.0946063 16.650241.165561 24.951507.2128641.524793 23.6988628.405522 47.3977268.071563 71.0729378-8.277412.118258-16.578678.189213-24.85609.212864-.16698 7.710409-.310105 15.397166-.429376 23.107575-8.301266.118258-16.602533.260167-24.903799.402076 0 7.473893-.047708 14.971438-.143125 22.445331 8.396683.118258 16.81722.236515 25.213903.354773-.190833 31.551181-.214688 63.102363.047709 94.653544-8.396683.189212-16.769512.378425-25.166195.473031-.047709 7.615802-.071563 15.207953-.095417 22.823756-8.563663.141909-17.103471.331121-25.64328.638592 0 7.73406-.071562 15.444469-.214687 23.178529-8.277413 0-16.554825.023651-24.808382.047303.047708 7.615802.143125 15.207953.333959 22.823755-33.801421-.023651-67.626695.307471-101.428115-.165561-.023855-7.686757-.047709-15.397165-.023855-23.083922 33.539024-.165561 67.101902-.094606 100.640926-.047303.023855-7.828667.047709-15.633682.119271-23.462348-16.912637-.141909-33.80142-.165561-50.690203-.094606.071563-7.852318.071563-15.728288 0-23.580606-16.36399-.023651-32.727981.023652-49.091971-.047303-2.027608-15.302559-1.311982-30.77068-.834897-46.144194-8.587517-.212864-17.15118-.402076-25.738697-.638592-.023854-7.639454-.047708-15.278908-.071562-22.942013-8.468246-.070955-16.9126375-.118258-25.3808832-.212864.0715626-7.592151.1192711-15.184302.2146879-22.752801-8.3489747-.44938-16.6979493-.780502-25.046924-1.158927-.45323-23.415044-.2385421-46.830089-.0715626-70.221482-8.4921-.070954-17.0080541-.16556-25.5240083-.260167-.2385421-7.73406-.3816674-15.46812-.5247927-23.20218-8.0627241 0-16.10159399-.14191-24.1643181-.331122.07156264-7.923273.11927107-15.822894.16697949-23.7225149 7.84803619-.1182578 15.81534341.1655609 23.54410861-1.3008358 1.1450022-7.3556352 1.0495853-14.8295282 1.3119817-22.2324665 8.1819952-.0473032 16.3401361-.1182578 24.5221313-.1892125.1192711-7.8286664.1669795-15.6573328.0715626-23.4859992 8.5398084-.0236516 17.0557626 0 25.5955709 0 .1192711 7.8050148.1908338 15.5863781.214688 23.3677414-.0477085 7.9232726-.0715627 15.8465453-.1431253 23.7698179-16.769512.0236516-33.5628782.0709547-50.3562444.0236516-.0238542 7.852318-.1908337 15.680984-.4293758 23.509651 16.888783.047303 33.8014203.070954 50.6902033 0 .1192711 7.828666.1908337 15.657333.214688 23.509651-.0954169 23.438696.0238542 46.877392-.1192711 70.316088 8.3966831.118258 16.769512.260167 25.1661947.520334.047709 7.710409.095417 15.444469.214688 23.178529 33.634441-.070955 67.268882-.023651 100.903323-.023651.071562-7.805015.119271-15.61003.190833-23.415045 16.769512-.165561 33.539024-.212864 50.332391-.094606.023854-15.61003.047708-31.22006-.047709-46.830089-16.769512.047303-33.562878.047303-50.33239 0-.047708 7.781363-.071563 15.539075-.119271 23.320438-8.372829.165561-16.745658.236516-25.118487.260167-.190833-15.680984-.214688-31.38562-.023854-47.090256-8.515954-.023652-17.055762 0-25.571717 0 .119271-7.852318.286251-15.704636.477085-23.533302 33.491315-.118258 67.006485.236515 100.4978-.165561.16698-7.757712.262397-15.491772.357814-23.2258324 8.348974-.1655609 16.674095-.3074703 25.023069-.4966828.143126-15.539075.047709-31.07815-.190833-46.617225-8.062724-.1655609-16.101594-.3311219-24.140464-.5439859-.286251-7.6867571-.45323-15.3971657-.572501-23.1075743-50.570933-.4020765-101.165719.2838187-151.736651-.3547734 0-7.5211961-.047709-15.04239223-.119271-22.56358835m151.736651 211.23208315c-.071563 7.734061-.190834 15.468121-.333959 23.178529-8.396683 0-16.793367.047304-25.19005.118258.262397 7.781364.381668 15.586378.405522 23.391393 8.301266.047303 16.602532.118258 24.879944.236516.190834 15.680984.310105 31.361969.047709 47.019301 8.372829-.094606 16.721803-.118257 25.094632-.070954.262397-31.338317.143126-62.676635.071563-93.9913-8.325121 0-16.650241.070954-24.975361.118257m-75.760982 46.853741c-.190834 15.704636-.166979 31.409272.023854 47.13756 16.793366-.165561 33.610587-.118258 50.403953-.070955-.071563-15.704636-.071563-31.409272 0-47.113908-16.81722.023652-33.610587-.070955-50.427807.047303m-101.2611356-235.5222358c8.4682458.0236516 16.9364915 0 25.4047376 0-.119271 7.852318-.16698 15.704636-.190834 23.5333024-8.3966832.0946062-16.7933663.1419093-25.1900494.1892125-.0238542-7.8996211-.0238542-15.7992422-.0238542-23.7225149m25.4285916 118.0922398c8.32512 0 16.650241 0 24.951507-.023652.405522 15.680985.286251 31.385621.143125 47.066605-8.396683-.070955-16.769512-.070955-25.142341 0-.071562-15.680984-.143125-31.361969.047709-47.042953m0 164.425646c8.253558.023652 16.507115.023652 24.760673 0 .739481 15.9175.357813 31.882303.500939 47.823455-8.396683-.14191-16.793366-.189213-25.19005-.189213-.429375-15.870197-.429375-31.764045-.071562-47.634242" fill="#2b2b2b"/><path d="m100.798267 24.5220301c50.539957.6482892 101.103753-.0480214 151.64371.3601607.119198 7.8274918.286075 15.6549836.57215 23.4584647 8.033946.2160964 16.067892.3841714 24.125678.5522464.238396 15.7750372.333754 31.5500744.190717 47.3251116-8.343861.1920857-16.663882.3361499-25.007743.5042249-.095359 7.8515026-.190717 15.7030046-.357594 23.5785186-33.470802.408182-66.965443.048021-100.436244.168075-.190717 7.947545-.357594 15.919101-.476792 23.890657-8.439219.024011-16.854599.024011-25.293818.024011-8.296182.024011-16.616203.024011-24.936224.024011-8.3915401-.024011-16.8069197-.072032-25.1984597-.192086-.0238396-7.971556-.0953584-15.919101-.2145564-23.866647 16.8069196-.048021 33.6138391-.024011 50.4207591-.144064-.02384-7.851503-.071519-15.703005-.143038-23.5545077-8.296182-.0480214-16.592363-.1200536-24.888545-.2160964-.119198-7.899524-.190717-15.8230586-.262235-23.7225826-8.2961819-.0480214-16.5923635-.1440643-24.8885451-.3841714-.0238396-7.8995239-.0953584-15.7990479-.2145564-23.7225825 8.39154-.0480215 16.78308-.0960429 25.1746195-.1920857.02384-7.9475454.071519-15.9191015.190717-23.8906576" fill="#c0362e"/><path d="m99.6090469 71.2217053c.0711265 7.8196096.142253 15.6629869.2607972 23.4825965 8.2506769.0950712 16.5013549.1663747 24.7520319.2139103.071126 7.7720739.118544 15.5441479.142253 23.3162219-16.714734.118839-33.4294682.095071-50.1442022.142607-16.7858605.071303-33.5954299.047535-50.3812904 0 .2370884-7.867145.4030503-15.734291.4267591-23.6252036 16.6910252.0475356 33.3820504 0 50.0493667-.0237678.0711265-7.9622164.0948354-15.9244328.142253-23.8866493 8.2506772.2376781 16.5013545.3327494 24.7520317.380285zm-24.7757405 70.7805387c8.3455126.118839 16.714734.166375 25.0602466.190143-.1896708 15.758058-.1185442 31.516116-.0474177 47.274174 8.3218037-.071303 16.6436077-.071303 24.9891197 0 .142253-15.758058.260798-31.539884-.142253-47.297942 8.392931 0 16.762152 0 25.155082-.023768 8.464057 0 16.951823-.023768 25.415879 0-.18967 15.781826-.165961 31.563652.023709 47.32171 8.321804-.023768 16.643608-.095071 24.965412-.261446.047417-7.819609.071126-15.615451.118544-23.435061 16.667316.047536 33.358341.047536 50.025658 0 .094835 15.686755.071126 31.37351.047417 47.060264-16.691025-.118839-33.358341-.071303-50.025658.095072-.071126 7.843377-.118544 15.686754-.18967 23.530132-33.429468 0-66.858936-.047536-100.2884043.023768-.1185442-7.772074-.1659619-15.544148-.2133796-23.292454-8.3455126-.261446-16.6673163-.404053-25.0128289-.522892.142253-23.5539.0237088-47.1078.1185442-70.6617m100.4306566 118.19732c16.714734-.118839 33.40576-.023768 50.120494-.047535-.071127 15.781826-.071127 31.563652 0 47.345477-16.691025-.047535-33.40576-.095071-50.096785.071304-.18967-15.805594-.213379-31.58742-.023709-47.369246m-50.760631 47.226639h1.754454c16.264266.071303 32.528532.023768 48.792798.047536.071126 7.890913.071126 15.805593 0 23.696506 16.78586-.071303 33.571721-.047535 50.38129.095072-.071126 7.867145-.094835 15.710522-.118544 23.577667-33.334633-.047535-66.692974-.118839-100.027607.047536-.023708 7.724538 0 15.472844.023709 23.197383 33.59543.475356 67.214569.142607 100.809999.166374-33.690265.831874-67.40424.33275-101.118214.261446.047418-7.677002.047418-15.354005 0-23.031008-.142253-16.019504.237089-32.062776-.497885-48.058512" fill="#fff"/></g></g></svg>

<?xml version="1.0" encoding="UTF-8"?>
<svg width="485px" height="493px" viewBox="0 0 485 493" version="1.1" xmlns="http://www.w3.org/2000/svg" xmlns:xlink="http://www.w3.org/1999/xlink">
    <!-- Generator: Sketch 48.2 (47327) - http://www.bohemiancoding.com/sketch -->
    <title>icon</title>
    <desc>Created with Sketch.</desc>
    <defs>
        <filter x="-5.6%" y="-5.1%" width="112.1%" height="111.9%" filterUnits="objectBoundingBox" id="filter-1">
            <feOffset dx="2" dy="4" in="SourceAlpha" result="shadowOffsetOuter1"></feOffset>
            <feGaussianBlur stdDeviation="5" in="shadowOffsetOuter1" result="shadowBlurOuter1"></feGaussianBlur>
            <feColorMatrix values="0 0 0 0 0   0 0 0 0 0   0 0 0 0 0  0 0 0 0.5 0" type="matrix" in="shadowBlurOuter1" result="shadowMatrixOuter1"></feColorMatrix>
            <feMerge>
                <feMergeNode in="shadowMatrixOuter1"></feMergeNode>
                <feMergeNode in="SourceGraphic"></feMergeNode>
            </feMerge>
        </filter>
        <ellipse id="path-2" cx="222.653409" cy="226.147611" rx="222.1875" ry="226.147611"></ellipse>
    </defs>
    <g id="Page-1" stroke="none" stroke-width="1" fill="none" fill-rule="evenodd">
        <g id="icon" transform="translate(18.000000, 16.000000)">
            <g id="Pokemon" filter="url(#filter-1)">
                <g id="coin">
                    <use fill="#A6D6D8" fill-rule="evenodd" xlink:href="#path-2"></use>
                    <ellipse stroke="#E43894" stroke-width="10" cx="222.653409" cy="226.147611" rx="227.1875" ry="231.147611"></ellipse>
                    <ellipse stroke="#2B2B2B" stroke-width="5" cx="222.653409" cy="226.147611" rx="219.6875" ry="223.647611"></ellipse>
                </g>
                <g id="user" transform="translate(58.000000, 37.000000)">
                    <path d="M100.473947,0.350565848 C151.235713,0.114050247 202.021333,-0.429935636 252.783099,0.63438457 C252.73539,8.01367134 252.783099,15.4166097 252.90237,22.7958964 C261.203636,22.8905027 269.528756,22.9378058 277.830023,22.9851089 C277.92544,30.8137753 277.973148,38.6424417 278.044711,46.4711081 C286.441394,46.5420628 294.814223,46.6130175 303.210906,46.6839722 C302.900801,62.2703503 302.996218,77.8567284 303.258614,93.4667581 C311.583735,93.5613644 319.908855,93.6323191 328.210121,93.6796222 C328.734914,117.378485 328.615643,141.077349 328.281684,164.75256 C320.004272,164.870818 311.703006,164.941773 303.425594,164.965424 C303.258614,172.675833 303.115489,180.36259 302.996218,188.072999 C294.694952,188.191257 286.393685,188.333166 278.092419,188.475075 C278.092419,195.948968 278.044711,203.446513 277.949294,210.920406 C286.345977,211.038664 294.766514,211.156921 303.163197,211.275179 C302.972364,242.82636 302.948509,274.377542 303.210906,305.928723 C294.814223,306.117935 286.441394,306.307148 278.044711,306.401754 C277.997002,314.017556 277.973148,321.609707 277.949294,329.22551 C269.385631,329.367419 260.845823,329.556631 252.306014,329.864102 C252.306014,337.598162 252.234452,345.308571 252.091327,353.042631 C243.813914,353.042631 235.536502,353.066282 227.282945,353.089934 C227.330653,360.705736 227.42607,368.297887 227.616904,375.913689 C193.815483,375.890038 159.990209,376.22116 126.188789,375.748128 C126.164934,368.061371 126.14108,360.350963 126.164934,352.664206 C159.703958,352.498645 193.266836,352.5696 226.80586,352.616903 C226.829715,344.788236 226.853569,336.983221 226.925131,329.154555 C210.012494,329.012646 193.123711,328.988994 176.234928,329.059949 C176.306491,321.207631 176.306491,313.331661 176.234928,305.479343 C159.870938,305.455692 143.506947,305.502995 127.142957,305.43204 C125.115349,290.129481 125.830975,274.66136 126.30806,259.287846 C117.720543,259.074982 109.15688,258.88577 100.569363,258.649254 C100.545509,251.0098 100.521655,243.370346 100.497801,235.707241 C92.029555,235.636286 83.5851635,235.588983 75.1169178,235.494377 C75.1884804,227.902226 75.2361889,220.310075 75.3316057,212.741576 C66.982631,212.292196 58.6336564,211.961074 50.2846817,211.582649 C49.8314517,188.167605 50.0461396,164.75256 50.2131191,141.361167 C41.7210191,141.290213 33.205065,141.195607 24.6891108,141.101 C24.4505687,133.36694 24.3074434,125.63288 24.1643181,117.89882 C16.101594,117.89882 8.06272411,117.75691 0,117.567698 C0.07156264,109.644425 0.119271067,101.744804 0.166979493,93.8451831 C8.01501568,93.7269253 15.9823229,94.010744 23.7110881,92.5443473 C24.8560903,85.1887121 24.7606734,77.7148191 25.0230698,70.3118808 C33.205065,70.2645776 41.3632059,70.193623 49.5452011,70.1226683 C49.6644722,62.2940019 49.7121806,54.4653355 49.6167637,46.6366691 C58.1565721,46.6130175 66.6725263,46.6366691 75.2123346,46.6366691 C75.3316057,54.4416839 75.4031684,62.2230472 75.4270226,70.0044105 C75.3793141,77.9276831 75.3554599,85.8509558 75.2838973,93.7742284 C58.5143853,93.79788 41.7210191,93.8451831 24.9276529,93.79788 C24.9037987,101.650198 24.7368192,109.478864 24.4982771,117.307531 C41.3870601,117.354834 58.2996974,117.378485 75.1884804,117.307531 C75.3077515,125.136197 75.3793141,132.964864 75.4031684,140.817182 C75.3077515,164.255878 75.4270226,187.694574 75.2838973,211.13327 C83.6805804,211.251528 92.0534093,211.393437 100.450092,211.653604 C100.497801,219.364013 100.545509,227.098073 100.66478,234.832133 C134.299221,234.761178 167.933662,234.808482 201.568103,234.808482 C201.639665,227.003467 201.687374,219.198452 201.758936,211.393437 C218.528448,211.227876 235.29796,211.180573 252.091327,211.298831 C252.115181,195.688801 252.139035,180.078771 252.043618,164.468742 C235.274106,164.516045 218.48074,164.516045 201.711228,164.468742 C201.66352,172.250105 201.639665,180.007817 201.591957,187.78918 C193.219128,187.954741 184.846299,188.025696 176.47347,188.049347 C176.282637,172.368363 176.258782,156.663727 176.449616,140.959091 C167.933662,140.935439 159.393854,140.959091 150.877899,140.959091 C150.99717,133.106773 151.16415,125.254455 151.354984,117.425789 C184.846299,117.307531 218.361469,117.662304 251.852784,117.260228 C252.019764,109.502516 252.115181,101.768456 252.210598,94.0343956 C260.559572,93.8688347 268.884693,93.7269253 277.233667,93.5377128 C277.376793,77.9986378 277.281376,62.4595628 277.042834,46.9204878 C268.98011,46.7549269 260.94124,46.5893659 252.90237,46.3765019 C252.616119,38.6897448 252.44914,30.9793362 252.329869,23.2689276 C201.758936,22.8668511 151.16415,23.5527463 100.593218,22.9141542 C100.593218,15.3929581 100.545509,7.87176197 100.473947,0.350565848 M252.210598,211.582649 C252.139035,219.31671 252.019764,227.05077 251.876639,234.761178 C243.479956,234.761178 235.083272,234.808482 226.686589,234.879436 C226.948986,242.6608 227.068257,250.465814 227.092111,258.270829 C235.393377,258.318132 243.694643,258.389087 251.972055,258.507345 C252.162889,274.188329 252.28216,289.869314 252.019764,305.526646 C260.392593,305.43204 268.741567,305.408389 277.114396,305.455692 C277.376793,274.117375 277.257522,242.779057 277.185959,211.464392 C268.860838,211.464392 260.535718,211.535346 252.210598,211.582649 M176.449616,258.43639 C176.258782,274.141026 176.282637,289.845662 176.47347,305.57395 C193.266836,305.408389 210.084057,305.455692 226.877423,305.502995 C226.80586,289.798359 226.80586,274.093723 226.877423,258.389087 C210.060203,258.412739 193.266836,258.318132 176.449616,258.43639 M75.1884804,22.9141542 C83.6567262,22.9378058 92.1249719,22.9141542 100.593218,22.9141542 C100.473947,30.7664722 100.426238,38.6187902 100.402384,46.4474566 C92.0057008,46.5420628 83.6090177,46.5893659 75.2123346,46.6366691 C75.1884804,38.737048 75.1884804,30.8374269 75.1884804,22.9141542 M100.617072,141.006394 C108.942192,141.006394 117.267313,141.006394 125.568579,140.982742 C125.974101,156.663727 125.85483,172.368363 125.711704,188.049347 C117.315021,187.978392 108.942192,187.978392 100.569363,188.049347 C100.497801,172.368363 100.426238,156.687378 100.617072,141.006394 M100.617072,305.43204 C108.87063,305.455692 117.124187,305.455692 125.377745,305.43204 C126.117226,321.34954 125.735558,337.314343 125.878684,353.255495 C117.482001,353.113585 109.085318,353.066282 100.688634,353.066282 C100.259259,337.196085 100.259259,321.302237 100.617072,305.43204" id="Fill-1" fill="#2B2B2B"></path>
                    <path d="M100.798267,24.5220301 C151.338224,25.1703193 201.90202,24.4740087 252.441977,24.8821908 C252.561175,32.7096826 252.728052,40.5371744 253.014127,48.3406555 C261.048073,48.5567519 269.082019,48.7248269 277.139805,48.8929019 C277.378201,64.6679391 277.473559,80.4429763 277.330522,96.2180135 C268.986661,96.4100992 260.66664,96.5541634 252.322779,96.7222384 C252.22742,104.573741 252.132062,112.425243 251.965185,120.300757 C218.494383,120.708939 184.999742,120.348778 151.528941,120.468832 C151.338224,128.416377 151.171347,136.387933 151.052149,144.359489 C142.61293,144.3835 134.19755,144.3835 125.758331,144.3835 C117.462149,144.407511 109.142128,144.407511 100.822107,144.407511 C92.4305669,144.3835 84.0151873,144.335479 75.6236473,144.215425 C75.5998077,136.243869 75.5282889,128.296324 75.4090909,120.348778 C92.2160105,120.300757 109.02293,120.324767 125.82985,120.204714 C125.80601,112.353211 125.758331,104.501709 125.686812,96.6502063 C117.39063,96.6021849 109.094449,96.5301527 100.798267,96.4341099 C100.679069,88.5345859 100.60755,80.6110513 100.536032,72.7115273 C92.2398501,72.6635059 83.9436685,72.567463 75.6474869,72.3273559 C75.6236473,64.427832 75.5521285,56.528308 75.4329305,48.6047734 C83.8244705,48.5567519 92.2160105,48.5087305 100.60755,48.4126877 C100.63139,40.4651423 100.679069,32.4935862 100.798267,24.5220301" id="Fill-2" fill="#C0362E"></path>
                    <path d="M99.6090469,71.2217053 C99.6801734,79.0413149 99.7512999,86.8846922 99.8698441,94.7043018 C108.120521,94.799373 116.371199,94.8706765 124.621876,94.9182121 C124.693002,102.690286 124.74042,110.46236 124.764129,118.234434 C108.049395,118.353273 91.3346608,118.329505 74.6199268,118.377041 C57.8340663,118.448344 41.0244969,118.424576 24.2386364,118.377041 C24.4757248,110.509896 24.6416867,102.64275 24.6653955,94.7518374 C41.3564207,94.799373 58.0474459,94.7518374 74.7147622,94.7280696 C74.7858887,86.7658532 74.8095976,78.8036368 74.8570152,70.8414203 C83.1076924,71.0790984 91.3583697,71.1741697 99.6090469,71.2217053 Z M74.8333064,142.002244 C83.178819,142.121083 91.5480404,142.168619 99.893553,142.192387 C99.7038822,157.950445 99.7750088,173.708503 99.8461353,189.466561 C108.167939,189.395258 116.489743,189.395258 124.835255,189.466561 C124.977508,173.708503 125.096053,157.926677 124.693002,142.168619 C133.085933,142.168619 141.455154,142.168619 149.848084,142.144851 C158.312141,142.144851 166.799907,142.121083 175.263963,142.144851 C175.074293,157.926677 175.098002,173.708503 175.287672,189.466561 C183.609476,189.442793 191.93128,189.37149 200.253084,189.205115 C200.300501,181.385506 200.32421,173.589664 200.371628,165.770054 C217.038944,165.81759 233.729969,165.81759 250.397286,165.770054 C250.492121,181.456809 250.468412,197.143564 250.444703,212.830318 C233.753678,212.711479 217.086362,212.759015 200.419045,212.92539 C200.347919,220.768767 200.300501,228.612144 200.229375,236.455522 C166.799907,236.455522 133.370439,236.407986 99.9409707,236.47929 C99.8224265,228.707216 99.7750088,220.935142 99.7275911,213.186836 C91.3820785,212.92539 83.0602748,212.782783 74.7147622,212.663944 C74.8570152,189.110044 74.738471,165.556144 74.8333064,142.002244 M175.263963,260.199564 C191.978697,260.080725 208.669723,260.175796 225.384457,260.152029 C225.31333,275.933855 225.31333,291.715681 225.384457,307.497506 C208.693432,307.449971 191.978697,307.402435 175.287672,307.56881 C175.098002,291.763216 175.074293,275.98139 175.263963,260.199564 M124.503332,307.426203 L126.257786,307.426203 C142.522052,307.497506 158.786318,307.449971 175.050584,307.473739 C175.12171,315.364652 175.12171,323.279332 175.050584,331.170245 C191.836444,331.098942 208.622305,331.12271 225.431874,331.265317 C225.360748,339.132462 225.337039,346.975839 225.31333,354.842984 C191.978697,354.795449 158.620356,354.724145 125.285723,354.89052 C125.262015,362.615058 125.285723,370.363364 125.309432,378.087903 C158.904862,378.563259 192.524001,378.23051 226.119431,378.254277 C192.429166,379.086151 158.715191,378.587027 125.001217,378.515723 C125.048635,370.838721 125.048635,363.161718 125.001217,355.484715 C124.858964,339.465211 125.238306,323.421939 124.503332,307.426203" id="Fill-3" fill="#FFFFFF"></path>
                </g>
            </g>
        </g>
    </g>
</svg>
